X:3829
L:1/8
M:3/4
K:G
"G" d3 c B2 |"D7" c2 c2 A2 | a3 g f2 |"G" b2 b2 g2 | d3 c B2 |"Am" c2 c2 A2 |"D7" a3 g f2 | 
"G" g2 z2 GB ::"D7" ce d4 | ce d4 | ca a2 g2 |"G" bg dB G2 |"D7" ce d4 | ce d4 | ca a2 f2 |1 
"G" g2 z2 z2 :|2"G" g2 z2 e=f |:[K:C]"C" g2 ga g2 | ce gG c2 |"G7" GB dG Bd |"C" ag eG c2 | 
 g2 ga ga | cd eg c2 |"G7" GB df aB |1"C" c2 z2 ef :|2"C" c2 z2 Bc |:"G" d2 de d2 | b2 gd B2 | 
"C" e2 c'a"D7" ^fa |"G" g2"G7" f4 |"C" cd ef ga | c'2 ^fg ec |"G7" a2 ef dB |"C" c2 z2 z2 :|

